dist/icons/close.svg

<svg width="29" height="30" viewBox="0 0 29 30" fill="none" xmlns="http://www.w3.org/2000/svg">
<path id="Close" d="M17.1568 14.5231L28.4489 3.23075C29.1837 2.49623 29.1837 1.30861 28.4489 0.574085C27.7144 -0.160437 26.5267 -0.160437 25.7922 0.574085L14.4998 11.8665L3.20781 0.574085C2.47295 -0.160437 1.28567 -0.160437 0.551149 0.574085C-0.183716 1.30861 -0.183716 2.49623 0.551149 3.23075L11.8432 14.5231L0.551149 25.8155C-0.183716 26.55 -0.183716 27.7376 0.551149 28.4721C0.917206 28.8385 1.39852 29.0226 1.87948 29.0226C2.36045 29.0226 2.84141 28.8385 3.20781 28.4721L14.4998 17.1798L25.7922 28.4721C26.1586 28.8385 26.6396 29.0226 27.1205 29.0226C27.6015 29.0226 28.0825 28.8385 28.4489 28.4721C29.1837 27.7376 29.1837 26.55 28.4489 25.8155L17.1568 14.5231Z" fill="white"/>
</svg>

<svg width="29" height="30" fill="none" xmlns="http://www.w3.org/2000/svg"><path d="M17.157 14.523L28.449 3.231a1.876 1.876 0 000-2.657 1.877 1.877 0 00-2.657 0L14.5 11.867 3.208.574a1.877 1.877 0 00-2.657 0 1.876 1.876 0 000 2.657l11.292 11.292L.551 25.816a1.876 1.876 0 000 2.656c.366.366.848.55 1.328.55.481 0 .962-.183 1.329-.55L14.5 17.18l11.292 11.292a1.874 1.874 0 002.657 0 1.876 1.876 0 000-2.657L17.157 14.524z" fill="#fff"/></svg>
